images/brands/business-insider.svg

<svg fill="none" height="180" viewBox="0 0 833 180" width="833" xmlns="http://www.w3.org/2000/svg" xmlns:xlink="http://www.w3.org/1999/xlink"><clipPath id="a"><path d="m52 66h731v65h-731z"/></clipPath><g clip-path="url(#a)"><path clip-rule="evenodd" d="m52 67.3325h26.2946c14.6253 0 22.2724 7.6484 22.2724 17.0409 0 6.4837-3.6145 10.8875-8.6271 13.2166v.168c6.4103 2.329 10.0251 7.48 10.0251 14.045 0 9.393-7.1493 17.621-22.5994 17.621h-27.3656zm25.4752 24.6025c4.3539 0 6.33-2.2425 6.33-4.7395 0-2.4971-1.9708-4.8209-6.33-4.8209h-7.7223v9.5604zm.2464 22.441c4.6002 0 6.8226-2.242 6.8226-5.151s-2.3028-5.151-6.737-5.151h-8.0543v10.308h7.9687zm28.0194-10.221v-36.8225h17.913v36.6545c0 6.901 3.369 10.557 9.12 10.557 5.752 0 9.367-3.656 9.367-10.638v-36.5735h17.999v36.8225c0 15.627-10.352 26.85-27.366 26.85s-27.039-11.223-27.039-26.85zm100.01-33.8325v15.9575c-3.861-2.7408-10.437-4.6529-15.777-4.6529-4.846 0-7.315 1.5817-7.315 3.6563s2.71 3.1579 7.562 4.9021c8.22 2.9087 19.391 6.8141 19.391 20.0305 0 11.803-8.793 20.529-24.243 20.529-7.969 0-15.284-2.329-19.804-5.4v-16.792c4.439 3.657 11.176 6.565 17.667 6.565 5.505 0 8.054-2.08 8.054-4.403 0-2.99-4.193-4.323-9.205-6.154-6.577-2.41-17.009-6.7326-17.009-18.7847 0-10.8875 8.467-19.7817 23.585-19.7817 6.656 0 12.654 1.7442 17.094 4.3225zm8.461-2.99h17.914v62.0915h-17.914zm81.605 62.0915h-17.095l-22.106-33.329h-.081v33.329h-17.008v-62.0915h17.094l22.107 32.7495h.08v-32.7495h17.009zm7.395-62.0915h42.404v16.1255h-24.49v7.4804h22.021v14.6306h-22.021v7.729h24.49v16.126h-42.404zm87.356 2.99v15.9575c-3.861-2.7408-10.437-4.6529-15.777-4.6529-4.846 0-7.315 1.5817-7.315 3.6563s2.71 3.1579 7.562 4.9021c8.22 2.9087 19.391 6.8141 19.391 20.0305 0 11.803-8.793 20.529-24.243 20.529-7.969 0-15.284-2.329-19.804-5.4v-16.792c4.439 3.657 11.176 6.565 17.667 6.565 5.505 0 8.054-2.08 8.054-4.403 0-2.99-4.193-4.323-9.205-6.154-6.577-2.41-17.009-6.7326-17.009-18.7847 0-10.8875 8.467-19.7817 23.585-19.7817 6.657 0 12.655 1.7442 17.094 4.3225zm47.416 0v15.9575c-3.861-2.7408-10.437-4.6529-15.777-4.6529-4.846 0-7.315 1.5817-7.315 3.6563s2.71 3.1579 7.562 4.9021c8.22 2.9087 19.391 6.8141 19.391 20.0305 0 11.803-8.793 20.529-24.243 20.529-7.969 0-15.284-2.329-19.804-5.4v-16.792c4.439 3.657 11.176 6.565 17.667 6.565 5.505 0 8.054-2.08 8.054-4.403 0-2.99-4.193-4.323-9.205-6.154-6.577-2.41-17.009-6.7326-17.009-18.7847 0-10.8875 8.467-19.7817 23.585-19.7817 6.657 0 12.655 1.7442 17.094 4.3225zm24.618 59.2205h17.914v-62.0859h-17.914v62.0909zm81.594-62.0859h-17.008v32.7489h-.081l-22.107-32.7489h-17.094v62.0909h17.009v-33.3284h.08l22.107 33.3284h17.094zm28.833-1.3325c-15.123 0-23.585 8.8942-23.585 19.7817 0 12.0521 10.438 16.3747 17.009 18.7847 5.012 1.831 9.205 3.158 9.205 6.154 0 2.329-2.549 4.403-8.054 4.403-6.491 0-13.233-2.908-17.667-6.565v16.792c4.52 3.077 11.835 5.4 19.804 5.4 15.45 0 24.243-8.726 24.243-20.529 0-13.2164-11.176-17.1218-19.391-20.0305-4.847-1.7442-7.562-2.7409-7.562-4.9021 0-2.1613 2.463-3.6563 7.315-3.6563 5.34 0 11.916 1.9121 15.777 4.6529v-15.9629c-4.439-2.5783-10.437-4.3225-17.094-4.3225zm25.138 63.4184h17.913v-62.0859h-17.913v62.0909zm43.223-16.375h3.454c9.286 0 15.284-5.319 15.284-14.63 0-9.3113-5.998-14.7117-15.284-14.7117h-3.454zm36.817-14.63c0 18.704-13.972 31.005-34.022 31.005h-20.709v-62.0859h20.709c20.05 0 34.022 12.3825 34.022 31.0863zm4.858 31.005h42.403v-16.125h-24.49v-7.73h22.021v-14.6305h-22.021v-7.4804h24.49v-16.12h-42.403v62.0909zm70.599-32.7492c4.52 0 8.054-2.1613 8.054-6.4838s-3.535-6.4837-8.135-6.4837h-3.781v12.9675zm29.336 32.7492h-21.121l-11.67-19.202h-.412v19.202h-17.913v-62.0859h21.86c15.37 0 26.048 6.9009 26.048 21.6125 0 5.8175-2.549 14.2944-12.74 18.6174l15.943 21.861z" fill="#111" fill-rule="evenodd"/></g></svg>

<svg width="833" height="180" viewBox="0 0 833 180" fill="none" xmlns="http://www.w3.org/2000/svg">
<g clip-path="url(#clip0_332_717)">
<path fill-rule="evenodd" clip-rule="evenodd" d="M52 67.3325H78.2946C92.9199 67.3325 100.567 74.9809 100.567 84.3734C100.567 90.8571 96.9525 95.2609 91.9399 97.59V97.758C98.3502 100.087 101.965 105.238 101.965 111.803C101.965 121.196 94.8157 129.424 79.3656 129.424H52V67.3325ZM77.4752 91.935C81.8291 91.935 83.8052 89.6925 83.8052 87.1955C83.8052 84.6984 81.8344 82.3746 77.4752 82.3746H69.7529V91.935H77.4752ZM77.7216 114.376C82.3218 114.376 84.5442 112.134 84.5442 109.225C84.5442 106.316 82.2414 104.074 77.8072 104.074H69.7529V114.382H77.7216V114.376ZM105.741 104.155V67.3325H123.654V103.987C123.654 110.888 127.023 114.544 132.774 114.544C138.526 114.544 142.141 110.888 142.141 103.906V67.3325H160.14V104.155C160.14 119.782 149.788 131.005 132.774 131.005C115.76 131.005 105.735 119.782 105.735 104.155H105.741ZM205.751 70.3225V86.28C201.89 83.5392 195.314 81.6271 189.974 81.6271C185.128 81.6271 182.659 83.2088 182.659 85.2834C182.659 87.358 185.369 88.4413 190.221 90.1855C198.441 93.0942 209.612 96.9996 209.612 110.216C209.612 122.019 200.819 130.745 185.369 130.745C177.4 130.745 170.085 128.416 165.565 125.345V108.553C170.004 112.21 176.741 115.118 183.232 115.118C188.737 115.118 191.286 113.038 191.286 110.715C191.286 107.725 187.093 106.392 182.081 104.561C175.504 102.151 165.072 97.8284 165.072 85.7763C165.072 74.8888 173.539 65.9946 188.657 65.9946C195.313 65.9946 201.311 67.7388 205.751 70.3171V70.3225ZM214.212 67.3325H232.126V129.424H214.212V67.3325ZM295.817 129.424H278.722L256.616 96.095H256.535V129.424H239.527V67.3325H256.621L278.728 100.082H278.808V67.3325H295.817V129.424ZM303.212 67.3325H345.616V83.458H321.126V90.9384H343.147V105.569H321.126V113.298H345.616V129.424H303.212V67.3325ZM390.568 70.3225V86.28C386.707 83.5392 380.131 81.6271 374.791 81.6271C369.945 81.6271 367.476 83.2088 367.476 85.2834C367.476 87.358 370.186 88.4413 375.038 90.1855C383.258 93.0942 394.429 96.9996 394.429 110.216C394.429 122.019 385.636 130.745 370.186 130.745C362.217 130.745 354.902 128.416 350.382 125.345V108.553C354.821 112.21 361.558 115.118 368.049 115.118C373.554 115.118 376.103 113.038 376.103 110.715C376.103 107.725 371.91 106.392 366.898 104.561C360.321 102.151 349.889 97.8284 349.889 85.7763C349.889 74.8888 358.356 65.9946 373.474 65.9946C380.131 65.9946 386.129 67.7388 390.568 70.3171V70.3225ZM437.984 70.3225V86.28C434.123 83.5392 427.547 81.6271 422.207 81.6271C417.361 81.6271 414.892 83.2088 414.892 85.2834C414.892 87.358 417.602 88.4413 422.454 90.1855C430.674 93.0942 441.845 96.9996 441.845 110.216C441.845 122.019 433.052 130.745 417.602 130.745C409.633 130.745 402.318 128.416 397.798 125.345V108.553C402.237 112.21 408.974 115.118 415.465 115.118C420.97 115.118 423.519 113.038 423.519 110.715C423.519 107.725 419.326 106.392 414.314 104.561C407.737 102.151 397.305 97.8284 397.305 85.7763C397.305 74.8888 405.772 65.9946 420.89 65.9946C427.547 65.9946 433.545 67.7388 437.984 70.3171V70.3225ZM462.602 129.543H480.516V67.4571H462.602V129.548V129.543ZM544.196 67.4571H527.188V100.206H527.107L505 67.4571H487.906V129.548H504.915V96.2196H504.995L527.102 129.548H544.196V67.4571ZM573.029 66.1246C557.906 66.1246 549.444 75.0188 549.444 85.9063C549.444 97.9584 559.882 102.281 566.453 104.691C571.465 106.522 575.658 107.849 575.658 110.845C575.658 113.174 573.109 115.248 567.604 115.248C561.113 115.248 554.371 112.34 549.937 108.683V125.475C554.457 128.552 561.772 130.875 569.741 130.875C585.191 130.875 593.984 122.149 593.984 110.346C593.984 97.1296 582.808 93.2242 574.593 90.3155C569.746 88.5713 567.031 87.5746 567.031 85.4134C567.031 83.2521 569.494 81.7571 574.346 81.7571C579.686 81.7571 586.262 83.6692 590.123 86.41V70.4471C585.684 67.8688 579.686 66.1246 573.029 66.1246ZM598.167 129.543H616.08V67.4571H598.167V129.548V129.543ZM641.39 113.168H644.844C654.13 113.168 660.128 107.849 660.128 98.538C660.128 89.2267 654.13 83.8263 644.844 83.8263H641.39V113.168ZM678.207 98.538C678.207 117.242 664.235 129.543 644.185 129.543H623.476V67.4571H644.185C664.235 67.4571 678.207 79.8396 678.207 98.5434V98.538ZM683.065 129.543H725.468V113.418H700.978V105.688H722.999V91.0575H700.978V83.5771H725.468V67.4571H683.065V129.548V129.543ZM753.664 96.7938C758.184 96.7938 761.718 94.6325 761.718 90.31C761.718 85.9875 758.183 83.8263 753.583 83.8263H749.802V96.7938H753.664ZM783 129.543H761.879L750.209 110.341H749.797V129.543H731.884V67.4571H753.744C769.114 67.4571 779.792 74.358 779.792 89.0696C779.792 94.8871 777.243 103.364 767.052 107.687L782.995 129.548L783 129.543Z" fill="#111111"/>
</g>
<defs>
<clipPath id="clip0_332_717">
<rect width="731" height="65" fill="white" transform="translate(52 66)"/>
</clipPath>
</defs>
</svg>
